X:235
T:Heilig, heilig
C:BWV 325
L:1/8
M:4/4
K:Fmaj
V:1
c2 A2 G4|HF4 c2 d2|Hc4 f2 f2|e2 e2 d3 c|
Hc4 c2 d2|c2 B2 HA4|z2 G2 A=B c2|c2 =B2 Hc4|
c2 d2 B2 B2|A2 B2 A2 G2|HF4 z2 A2|G4 HF2 c2|c2 =B2 Hc2 f2|
f2 e2 d4|Hc4 c2 dc|B2 B2 A2 BA|G4 HF4|]
V:4 clef=bass
F,G, "6"A,B,"4"C4|HF,4"6"EC GG,|HC4 DC "4+"=B,G,|"2"CE AG "6""5"FD "#"GG,|
HC4 F2 B,2|C2"6"DE HF4|z2 CE FG AG|"6""5"FD "#"GG, HC4|
FE DF GF "4+"EC|"2"FE "6"DB,"6""4"C2 C,2|HF,4 z2 F2|"4"C4 HD2"6"E2|"6""5"F2"#"G2 HA2"6"A2|
"4+"=B2"2"c2"6""5"F2"#"G2|HC4 FE DF|GF "4+"EC FE "6"DC|"6""5"B,G, C2 HF,4|]







